wp-content/uploads/stamp05.svg

<?xml version="1.0" encoding="UTF-8"?> <svg xmlns="http://www.w3.org/2000/svg" width="197" height="23" viewBox="0 0 197 23" fill="none"><rect width="197" height="23" rx="5" fill="#032538"></rect><path d="M11.552 14.92V13.576L17.76 11.496V11.304L11.552 9.224V7.88L18.24 10.184V12.616L11.552 14.92ZM30.9378 5.8H38.0417V7.048H35.1618V15.752H38.0417V17H30.9378V15.752H33.8177V7.048H30.9378V5.8ZM46.4786 16.424H46.6706V5.8H48.0146V17H45.3266L42.0946 6.376H41.9026V17H40.5586V5.8H43.2466L46.4786 16.424ZM54.1475 15.976C54.6062 15.976 54.9955 15.9013 55.3155 15.752C55.6462 15.592 55.9128 15.384 56.1155 15.128C56.3288 14.8613 56.4835 14.5627 56.5795 14.232C56.6862 13.8907 56.7395 13.5333 56.7395 13.16V12.968H58.0835V13.16C58.0835 13.7253 57.9982 14.2587 57.8275 14.76C57.6568 15.2507 57.4062 15.6827 57.0755 16.056C56.7448 16.4187 56.3342 16.7067 55.8435 16.92C55.3528 17.1227 54.7875 17.224 54.1475 17.224C52.9102 17.224 51.9448 16.8347 51.2515 16.056C50.5582 15.2773 50.2115 14.1413 50.2115 12.648V10.152C50.2115 8.70133 50.5582 7.576 51.2515 6.776C51.9448 5.976 52.9102 5.576 54.1475 5.576C54.7875 5.576 55.3528 5.68267 55.8435 5.896C56.3342 6.09867 56.7448 6.38667 57.0755 6.76C57.4062 7.12267 57.6568 7.55467 57.8275 8.056C57.9982 8.54667 58.0835 9.07467 58.0835 9.64V9.832H56.7395V9.64C56.7288 9.27733 56.6702 8.92533 56.5635 8.584C56.4675 8.24267 56.3128 7.944 56.0995 7.688C55.8968 7.42133 55.6355 7.21333 55.3155 7.064C54.9955 6.904 54.6062 6.824 54.1475 6.824C53.2835 6.824 52.6328 7.13867 52.1955 7.768C51.7688 8.39733 51.5555 9.224 51.5555 10.248V12.552C51.5555 13.6507 51.7688 14.4987 52.1955 15.096C52.6328 15.6827 53.2835 15.976 54.1475 15.976ZM60.3764 5.8H61.7204V15.752H67.5764V17H60.3764V5.8ZM71.1813 5.8V13.224C71.1813 14.1307 71.3893 14.8187 71.8053 15.288C72.2319 15.7467 72.8559 15.976 73.6773 15.976C74.4986 15.976 75.1173 15.7467 75.5333 15.288C75.9599 14.8187 76.1733 14.1307 76.1733 13.224V5.8H77.5173V13.224C77.5173 14.5253 77.1759 15.5173 76.4933 16.2C75.8106 16.8827 74.8719 17.224 73.6773 17.224C72.4826 17.224 71.5439 16.8827 70.8613 16.2C70.1786 15.5173 69.8372 14.5253 69.8372 13.224V5.8H71.1813ZM86.1141 9.032C86.1141 8.66933 86.0395 8.34933 85.8901 8.072C85.7515 7.79467 85.5595 7.56533 85.3141 7.384C85.0688 7.20267 84.7861 7.064 84.4661 6.968C84.1461 6.872 83.8101 6.824 83.4581 6.824C83.1488 6.824 82.8555 6.86667 82.5781 6.952C82.3008 7.02667 82.0501 7.13867 81.8261 7.288C81.6128 7.43733 81.4421 7.624 81.3141 7.848C81.1861 8.06133 81.1221 8.312 81.1221 8.6V8.696C81.1221 9.00533 81.1861 9.272 81.3141 9.496C81.4421 9.70933 81.6288 9.896 81.8741 10.056C82.1301 10.2053 82.4448 10.3333 82.8181 10.44C83.1915 10.536 83.6288 10.6213 84.1301 10.696C85.3035 10.8773 86.1675 11.224 86.7221 11.736C87.2768 12.2373 87.5541 12.9147 87.5541 13.768V13.96C87.5541 14.44 87.4688 14.8827 87.2981 15.288C87.1381 15.6827 86.8928 16.024 86.5621 16.312C86.2421 16.6 85.8421 16.824 85.3621 16.984C84.8821 17.144 84.3275 17.224 83.6981 17.224C82.9835 17.224 82.3488 17.1227 81.7941 16.92C81.2501 16.7067 80.7915 16.4187 80.4181 16.056C80.0555 15.6827 79.7781 15.2507 79.5861 14.76C79.3941 14.2587 79.2981 13.7147 79.2981 13.128V12.648H80.6421V13.032C80.6421 14.0133 80.9088 14.7493 81.4421 15.24C81.9861 15.7307 82.7381 15.976 83.6981 15.976C84.5301 15.976 85.1541 15.7947 85.5701 15.432C85.9968 15.0587 86.2101 14.568 86.2101 13.96V13.864C86.2101 13.2773 85.9915 12.8293 85.5541 12.52C85.1275 12.2107 84.4288 11.9867 83.4581 11.848C82.8928 11.7733 82.3808 11.6613 81.9221 11.512C81.4741 11.352 81.0901 11.1493 80.7701 10.904C80.4501 10.648 80.2048 10.344 80.0341 9.992C79.8635 9.64 79.7781 9.224 79.7781 8.744V8.552C79.7781 8.11467 79.8688 7.71467 80.0501 7.352C80.2315 6.98933 80.4821 6.67467 80.8021 6.408C81.1328 6.14133 81.5221 5.93867 81.9701 5.8C82.4288 5.65067 82.9301 5.576 83.4741 5.576C84.1035 5.576 84.6635 5.66667 85.1541 5.848C85.6555 6.02933 86.0768 6.27467 86.4181 6.584C86.7595 6.88267 87.0155 7.24 87.1861 7.656C87.3675 8.06133 87.4581 8.488 87.4581 8.936V9.608H86.1141V9.032ZM89.719 5.8H96.823V7.048H93.943V15.752H96.823V17H89.719V15.752H92.599V7.048H89.719V5.8ZM98.6039 5.8H100.044L102.972 16.424H103.164L106.092 5.8H107.532L104.364 17H101.772L98.6039 5.8ZM109.473 5.8H116.257V7.048H110.817V10.76H116.161V12.008H110.817V15.752H116.353V17H109.473V5.8ZM128.731 5.8H132.411C133.797 5.8 134.811 6.13067 135.451 6.792C136.091 7.45333 136.411 8.50933 136.411 9.96V12.84C136.411 14.2907 136.091 15.3467 135.451 16.008C134.811 16.6693 133.797 17 132.411 17H128.731V15.736H129.691V7.048H128.731V5.8ZM132.219 15.752C132.709 15.752 133.131 15.704 133.483 15.608C133.845 15.512 134.144 15.352 134.379 15.128C134.613 14.8933 134.784 14.584 134.891 14.2C135.008 13.816 135.067 13.3307 135.067 12.744V10.056C135.067 9.46933 135.008 8.984 134.891 8.6C134.784 8.216 134.613 7.912 134.379 7.688C134.144 7.45333 133.845 7.288 133.483 7.192C133.131 7.096 132.709 7.048 132.219 7.048H131.035V15.752H132.219ZM138.863 5.8H145.647V7.048H140.207V10.76H145.551V12.008H140.207V15.752H145.743V17H138.863V5.8ZM154.692 9.032C154.692 8.66933 154.618 8.34933 154.468 8.072C154.33 7.79467 154.138 7.56533 153.892 7.384C153.647 7.20267 153.364 7.064 153.044 6.968C152.724 6.872 152.388 6.824 152.036 6.824C151.727 6.824 151.434 6.86667 151.156 6.952C150.879 7.02667 150.628 7.13867 150.404 7.288C150.191 7.43733 150.02 7.624 149.892 7.848C149.764 8.06133 149.7 8.312 149.7 8.6V8.696C149.7 9.00533 149.764 9.272 149.892 9.496C150.02 9.70933 150.207 9.896 150.452 10.056C150.708 10.2053 151.023 10.3333 151.396 10.44C151.77 10.536 152.207 10.6213 152.708 10.696C153.882 10.8773 154.746 11.224 155.3 11.736C155.855 12.2373 156.132 12.9147 156.132 13.768V13.96C156.132 14.44 156.047 14.8827 155.876 15.288C155.716 15.6827 155.471 16.024 155.14 16.312C154.82 16.6 154.42 16.824 153.94 16.984C153.46 17.144 152.906 17.224 152.276 17.224C151.562 17.224 150.927 17.1227 150.372 16.92C149.828 16.7067 149.37 16.4187 148.996 16.056C148.634 15.6827 148.356 15.2507 148.164 14.76C147.972 14.2587 147.876 13.7147 147.876 13.128V12.648H149.22V13.032C149.22 14.0133 149.487 14.7493 150.02 15.24C150.564 15.7307 151.316 15.976 152.276 15.976C153.108 15.976 153.732 15.7947 154.148 15.432C154.575 15.0587 154.788 14.568 154.788 13.96V13.864C154.788 13.2773 154.57 12.8293 154.132 12.52C153.706 12.2107 153.007 11.9867 152.036 11.848C151.471 11.7733 150.959 11.6613 150.5 11.512C150.052 11.352 149.668 11.1493 149.348 10.904C149.028 10.648 148.783 10.344 148.612 9.992C148.442 9.64 148.356 9.224 148.356 8.744V8.552C148.356 8.11467 148.447 7.71467 148.628 7.352C148.81 6.98933 149.06 6.67467 149.38 6.408C149.711 6.14133 150.1 5.93867 150.548 5.8C151.007 5.65067 151.508 5.576 152.052 5.576C152.682 5.576 153.242 5.66667 153.732 5.848C154.234 6.02933 154.655 6.27467 154.996 6.584C155.338 6.88267 155.594 7.24 155.764 7.656C155.946 8.06133 156.036 8.488 156.036 8.936V9.608H154.692V9.032ZM158.297 5.8H165.401V7.048H162.521V15.752H165.401V17H158.297V15.752H161.177V7.048H158.297V5.8ZM170.574 11.624H175.566V17H174.318V15.656H174.126C173.945 16.1253 173.625 16.504 173.166 16.792C172.707 17.08 172.174 17.224 171.566 17.224C170.361 17.224 169.411 16.8347 168.718 16.056C168.035 15.2773 167.694 14.1413 167.694 12.648V10.152C167.694 8.70133 168.041 7.576 168.734 6.776C169.427 5.976 170.393 5.576 171.63 5.576C172.27 5.576 172.835 5.68267 173.326 5.896C173.817 6.09867 174.227 6.38667 174.558 6.76C174.889 7.12267 175.139 7.55467 175.31 8.056C175.481 8.54667 175.566 9.07467 175.566 9.64V9.832H174.222V9.64C174.222 9.27733 174.169 8.92533 174.062 8.584C173.966 8.24267 173.811 7.944 173.598 7.688C173.395 7.42133 173.129 7.21333 172.798 7.064C172.478 6.904 172.089 6.824 171.63 6.824C170.766 6.824 170.115 7.13867 169.678 7.768C169.251 8.39733 169.038 9.224 169.038 10.248V12.552C169.038 13.6507 169.251 14.4987 169.678 15.096C170.115 15.6827 170.777 15.976 171.662 15.976C172.462 15.976 173.086 15.72 173.534 15.208C173.993 14.696 174.222 13.9813 174.222 13.064V12.872H170.574V11.624ZM183.635 16.424H183.827V5.8H185.171V17H182.483L179.251 6.376H179.059V17H177.715V5.8H180.403L183.635 16.424Z" fill="#DCCCF0"></path></svg>

<svg xmlns="http://www.w3.org/2000/svg" width="197" height="23" fill="none"><rect width="197" height="23" fill="#032538" rx="5"/><path fill="#DCCCF0" d="M11.552 14.92v-1.344l6.208-2.08v-.192l-6.208-2.08V7.88l6.688 2.304v2.432l-6.688 2.304ZM30.938 5.8h7.104v1.248h-2.88v8.704h2.88V17h-7.104v-1.248h2.88V7.048h-2.88V5.8Zm15.54 10.624h.193V5.8h1.344V17h-2.688L42.095 6.376h-.192V17h-1.344V5.8h2.688l3.232 10.624Zm7.67-.448c.458 0 .847-.075 1.167-.224.331-.16.598-.368.8-.624.214-.267.368-.565.465-.896.106-.341.16-.699.16-1.072v-.192h1.343v.192a4.93 4.93 0 0 1-.255 1.6 3.83 3.83 0 0 1-.753 1.296c-.33.363-.74.65-1.232.864-.49.203-1.056.304-1.696.304-1.237 0-2.202-.39-2.895-1.168-.694-.779-1.04-1.915-1.04-3.408v-2.496c0-1.45.346-2.576 1.04-3.376.693-.8 1.658-1.2 2.895-1.2.64 0 1.206.107 1.697.32.49.203.9.49 1.231.864.331.363.582.795.752 1.296.171.49.257 1.019.257 1.584v.192h-1.345V9.64a3.909 3.909 0 0 0-.175-1.056 2.393 2.393 0 0 0-.465-.896 2.06 2.06 0 0 0-.783-.624c-.32-.16-.71-.24-1.169-.24-.864 0-1.514.315-1.951.944-.427.63-.64 1.456-.64 2.48v2.304c0 1.099.213 1.947.64 2.544.437.587 1.087.88 1.952.88ZM60.376 5.8h1.344v9.952h5.856V17h-7.2V5.8Zm10.805 0v7.424c0 .907.208 1.595.624 2.064.427.459 1.05.688 1.872.688.822 0 1.44-.23 1.856-.688.427-.47.64-1.157.64-2.064V5.8h1.344v7.424c0 1.301-.341 2.293-1.024 2.976-.682.683-1.621 1.024-2.816 1.024-1.194 0-2.133-.341-2.816-1.024-.682-.683-1.024-1.675-1.024-2.976V5.8h1.344Zm14.933 3.232c0-.363-.075-.683-.224-.96a1.897 1.897 0 0 0-.576-.688 2.735 2.735 0 0 0-.848-.416 3.49 3.49 0 0 0-1.008-.144c-.31 0-.602.043-.88.128a2.531 2.531 0 0 0-.752.336c-.213.15-.384.336-.512.56a1.434 1.434 0 0 0-.192.752v.096c0 .31.064.576.192.8.128.213.315.4.56.56.256.15.57.277.944.384.374.096.81.181 1.312.256 1.174.181 2.038.528 2.592 1.04.555.501.832 1.179.832 2.032v.192c0 .48-.085.923-.256 1.328-.16.395-.405.736-.736 1.024a3.35 3.35 0 0 1-1.2.672c-.48.16-1.034.24-1.664.24-.714 0-1.35-.101-1.904-.304a4.088 4.088 0 0 1-1.376-.864 3.858 3.858 0 0 1-.832-1.296 4.525 4.525 0 0 1-.288-1.632v-.48h1.344v.384c0 .981.267 1.717.8 2.208.544.49 1.296.736 2.256.736.832 0 1.456-.181 1.872-.544.427-.373.64-.864.64-1.472v-.096c0-.587-.218-1.035-.656-1.344-.427-.31-1.125-.533-2.096-.672a8.618 8.618 0 0 1-1.536-.336 4.202 4.202 0 0 1-1.152-.608 2.627 2.627 0 0 1-.736-.912c-.17-.352-.256-.768-.256-1.248v-.192c0-.437.09-.837.272-1.2.181-.363.432-.677.752-.944.33-.267.72-.47 1.168-.608.459-.15.96-.224 1.504-.224.63 0 1.19.09 1.68.272a3.76 3.76 0 0 1 1.264.736c.341.299.597.656.768 1.072.181.405.272.832.272 1.28v.672h-1.344v-.576ZM89.72 5.8h7.104v1.248h-2.88v8.704h2.88V17h-7.104v-1.248h2.88V7.048h-2.88V5.8Zm8.885 0h1.44l2.928 10.624h.192L106.092 5.8h1.44L104.364 17h-2.592L98.604 5.8Zm10.869 0h6.784v1.248h-5.44v3.712h5.344v1.248h-5.344v3.744h5.536V17h-6.88V5.8Zm19.258 0h3.68c1.386 0 2.4.33 3.04.992.64.661.96 1.717.96 3.168v2.88c0 1.45-.32 2.507-.96 3.168-.64.661-1.654.992-3.04.992h-3.68v-1.264h.96V7.048h-.96V5.8Zm3.488 9.952c.49 0 .912-.048 1.264-.144.362-.096.661-.256.896-.48.234-.235.405-.544.512-.928.117-.384.176-.87.176-1.456v-2.688c0-.587-.059-1.072-.176-1.456-.107-.384-.278-.688-.512-.912a1.945 1.945 0 0 0-.896-.496 4.854 4.854 0 0 0-1.264-.144h-1.184v8.704h1.184Zm6.644-9.952h6.784v1.248h-5.44v3.712h5.344v1.248h-5.344v3.744h5.536V17h-6.88V5.8Zm15.829 3.232c0-.363-.074-.683-.224-.96a1.885 1.885 0 0 0-.576-.688 2.731 2.731 0 0 0-.848-.416 3.49 3.49 0 0 0-1.008-.144 2.98 2.98 0 0 0-.88.128 2.535 2.535 0 0 0-.752.336c-.213.15-.384.336-.512.56a1.434 1.434 0 0 0-.192.752v.096c0 .31.064.576.192.8.128.213.315.4.56.56.256.15.571.277.944.384.374.096.811.181 1.312.256 1.174.181 2.038.528 2.592 1.04.555.501.832 1.179.832 2.032v.192c0 .48-.085.923-.256 1.328-.16.395-.405.736-.736 1.024a3.35 3.35 0 0 1-1.2.672c-.48.16-1.034.24-1.664.24-.714 0-1.349-.101-1.904-.304a4.094 4.094 0 0 1-1.376-.864 3.868 3.868 0 0 1-.832-1.296 4.525 4.525 0 0 1-.288-1.632v-.48h1.344v.384c0 .981.267 1.717.8 2.208.544.49 1.296.736 2.256.736.832 0 1.456-.181 1.872-.544.427-.373.64-.864.64-1.472v-.096c0-.587-.218-1.035-.656-1.344-.426-.31-1.125-.533-2.096-.672a8.63 8.63 0 0 1-1.536-.336 4.202 4.202 0 0 1-1.152-.608 2.63 2.63 0 0 1-.736-.912c-.17-.352-.256-.768-.256-1.248v-.192c0-.437.091-.837.272-1.2.182-.363.432-.677.752-.944.331-.267.72-.47 1.168-.608.459-.15.96-.224 1.504-.224.63 0 1.19.09 1.68.272.502.181.923.427 1.264.736.342.299.598.656.768 1.072.182.405.272.832.272 1.28v.672h-1.344v-.576Zm3.605-3.232h7.104v1.248h-2.88v8.704h2.88V17h-7.104v-1.248h2.88V7.048h-2.88V5.8Zm12.277 5.824h4.992V17h-1.248v-1.344h-.192a2.3 2.3 0 0 1-.96 1.136c-.459.288-.992.432-1.6.432-1.205 0-2.155-.39-2.848-1.168-.683-.779-1.024-1.915-1.024-3.408v-2.496c0-1.45.347-2.576 1.04-3.376.693-.8 1.659-1.2 2.896-1.2.64 0 1.205.107 1.696.32.491.203.901.49 1.232.864.331.363.581.795.752 1.296a4.78 4.78 0 0 1 .256 1.584v.192h-1.344V9.64a3.51 3.51 0 0 0-.16-1.056 2.397 2.397 0 0 0-.464-.896 2.035 2.035 0 0 0-.8-.624c-.32-.16-.709-.24-1.168-.24-.864 0-1.515.315-1.952.944-.427.63-.64 1.456-.64 2.48v2.304c0 1.099.213 1.947.64 2.544.437.587 1.099.88 1.984.88.8 0 1.424-.256 1.872-.768.459-.512.688-1.227.688-2.144v-.192h-3.648v-1.248Zm13.061 4.8h.192V5.8h1.344V17h-2.688l-3.232-10.624h-.192V17h-1.344V5.8h2.688l3.232 10.624Z"/></svg>
